icons/system-open.svg

<svg viewBox="0 0 18 19"
     fill="currentColor"
     xmlns="http://www.w3.org/2000/svg">
    <g id="open"
       filter="url(#filter0_d_0_29)">
        <path id="Shape"
              d="M5.38 9.27C5.28 8.9 5.18 8.42 4.97 7.72C4.76 7.02 4.63 6.86 4.5 6.49C4.37 6.12 4.2 5.77 4 5.31C3.8168 4.84006 3.66317 4.35912 3.54 3.87C3.45676 3.4578 3.55918 3.02986 3.82 2.7C4.17886 2.34982 4.69668 2.21656 5.18 2.35C5.55865 2.51559 5.87907 2.79073 6.1 3.14C6.39504 3.61167 6.63653 4.11478 6.82 4.64C7.10174 5.35963 7.30622 6.10716 7.43 6.87L7.52 7.32C7.52 7.32 7.52 6.2 7.52 6.16C7.52 5.16 7.46 4.34 7.52 3.22C7.52 3.09 7.58 2.63 7.6 2.5C7.62585 2.06996 7.88212 1.68748 8.27 1.5C8.71528 1.30021 9.22472 1.30021 9.67 1.5C10.0686 1.67843 10.3347 2.06401 10.36 2.5C10.36 2.61 10.45 3.5 10.45 3.61C10.45 4.61 10.45 5.25 10.45 5.78C10.45 6.01 10.45 7.41 10.45 7.25C10.4735 5.93046 10.5871 4.61407 10.79 3.31C10.9085 2.90144 11.196 2.56301 11.58 2.38C12.0549 2.19294 12.5945 2.28544 12.98 2.62C13.2682 2.93629 13.4378 3.34269 13.46 3.77C13.46 4.18 13.46 4.67 13.46 5.02C13.46 5.89 13.46 6.34 13.46 7.14C13.46 7.14 13.46 7.44 13.46 7.32C13.55 7.04 13.65 6.78 13.73 6.58C13.81 6.38 13.97 5.97 14.09 5.72C14.2121 5.48166 14.3491 5.25121 14.5 5.03C14.6568 4.77573 14.8919 4.57923 15.17 4.47C15.4205 4.37318 15.6993 4.38116 15.9438 4.49213C16.1884 4.6031 16.378 4.80774 16.47 5.06C16.5295 5.42425 16.5295 5.79575 16.47 6.16C16.4033 6.71943 16.2862 7.27168 16.12 7.81C15.99 8.26 15.85 9.04 15.78 9.41C15.71 9.78 15.55 10.79 15.42 11.23C15.2275 11.7549 14.9615 12.2498 14.63 12.7C14.1448 13.2402 13.7437 13.8504 13.44 14.51C13.3653 14.8379 13.3317 15.1738 13.34 15.51C13.3384 15.8207 13.3788 16.1301 13.46 16.43C13.0512 16.4736 12.6388 16.4736 12.23 16.43C11.84 16.37 11.36 15.59 11.23 15.35C11.1657 15.2211 11.034 15.1397 10.89 15.1397C10.746 15.1397 10.6143 15.2211 10.55 15.35C10.32 15.73 9.84 16.42 9.5 16.46C8.83 16.54 7.45 16.46 6.36 16.46C6.36 16.46 6.55 15.46 6.13 15.1C5.71 14.74 5.3 14.32 4.99 14.04L4.16 13.12C3.88 12.76 3.53 12.03 2.92 11.12C2.57 10.62 1.92 10.03 1.64 9.54C1.40492 9.14232 1.33663 8.66783 1.45 8.22C1.61981 7.62536 2.21067 7.25446 2.82 7.36C3.2835 7.39054 3.72192 7.58147 4.06 7.9C4.32771 8.13164 4.57836 8.38229 4.81 8.65C4.97 8.84 5.01 8.93 5.19 9.16C5.37 9.39 5.49 9.62 5.4 9.28"
              fill="white" />
        <path id="Shape_2"
              d="M5.38 9.27C5.28 8.9 5.18 8.42 4.97 7.72C4.76 7.02 4.63 6.86 4.5 6.49C4.37 6.12 4.2 5.77 4 5.31C3.8168 4.84006 3.66317 4.35912 3.54 3.87C3.45676 3.4578 3.55918 3.02986 3.82 2.7C4.17886 2.34982 4.69668 2.21656 5.18 2.35C5.55865 2.51559 5.87907 2.79073 6.1 3.14C6.39504 3.61167 6.63653 4.11478 6.82 4.64C7.10174 5.35963 7.30622 6.10716 7.43 6.87L7.52 7.32C7.52 7.32 7.52 6.2 7.52 6.16C7.52 5.16 7.46 4.34 7.52 3.22C7.52 3.09 7.58 2.63 7.6 2.5C7.62585 2.06996 7.88212 1.68748 8.27 1.5C8.71528 1.30021 9.22472 1.30021 9.67 1.5C10.0686 1.67843 10.3347 2.06401 10.36 2.5C10.36 2.61 10.45 3.5 10.45 3.61C10.45 4.61 10.45 5.25 10.45 5.78C10.45 6.01 10.45 7.41 10.45 7.25C10.4735 5.93046 10.5871 4.61407 10.79 3.31C10.9085 2.90144 11.196 2.56301 11.58 2.38C12.0549 2.19294 12.5945 2.28544 12.98 2.62C13.2682 2.93629 13.4378 3.34269 13.46 3.77C13.46 4.18 13.46 4.67 13.46 5.02C13.46 5.89 13.46 6.34 13.46 7.14C13.46 7.14 13.46 7.44 13.46 7.32C13.55 7.04 13.65 6.78 13.73 6.58C13.81 6.38 13.97 5.97 14.09 5.72C14.2121 5.48166 14.3491 5.25121 14.5 5.03C14.6568 4.77573 14.8919 4.57923 15.17 4.47C15.4205 4.37318 15.6993 4.38115 15.9438 4.49213C16.1884 4.6031 16.378 4.80774 16.47 5.06C16.5295 5.42425 16.5295 5.79575 16.47 6.16C16.4033 6.71943 16.2862 7.27168 16.12 7.81C15.99 8.26 15.85 9.04 15.78 9.41C15.71 9.78 15.55 10.79 15.42 11.23C15.2275 11.7549 14.9615 12.2498 14.63 12.7C14.1448 13.2402 13.7437 13.8504 13.44 14.51C13.3653 14.8379 13.3317 15.1738 13.34 15.51C13.3384 15.8207 13.3788 16.1301 13.46 16.43C13.0512 16.4736 12.6388 16.4736 12.23 16.43C11.84 16.37 11.36 15.59 11.23 15.35C11.1657 15.2211 11.034 15.1397 10.89 15.1397C10.746 15.1397 10.6143 15.2211 10.55 15.35C10.32 15.73 9.84 16.42 9.5 16.46C8.83 16.54 7.45 16.46 6.36 16.46C6.36 16.46 6.55 15.46 6.13 15.1C5.71 14.74 5.3 14.32 4.99 14.04L4.16 13.12C3.88 12.76 3.53 12.03 2.92 11.12C2.57 10.62 1.92 10.03 1.64 9.54C1.40492 9.14232 1.33663 8.66783 1.45 8.22C1.61981 7.62536 2.21067 7.25446 2.82 7.36C3.2835 7.39054 3.72192 7.58147 4.06 7.9C4.32771 8.13164 4.57836 8.38229 4.81 8.65C4.97 8.84 5.01 8.93 5.19 9.16C5.37 9.39 5.49 9.62 5.4 9.28"
              stroke="#222124"
              stroke-width="0.75"
              stroke-linecap="round"
              stroke-linejoin="round" />
        <path id="Shape_3"
              d="M12.75 13.4309V9.97911C12.75 9.77249 12.5821 9.605 12.375 9.605C12.1679 9.605 12 9.77249 12 9.97911V13.4309C12 13.6375 12.1679 13.805 12.375 13.805C12.5821 13.805 12.75 13.6375 12.75 13.4309Z"
              fill="#222124" />
        <path id="Shape_4"
              d="M10.76 13.4307L10.75 9.97715C10.7494 9.77102 10.581 9.60441 10.3739 9.605C10.1668 9.6056 9.9994 9.77317 10 9.9793L10.01 13.4329C10.0106 13.639 10.179 13.8056 10.3861 13.805C10.5932 13.8044 10.7606 13.6368 10.76 13.4307Z"
              fill="#222124" />
        <path id="Shape_5"
              d="M8.00501 9.97991L8.02501 13.4245C8.02622 13.6331 8.19509 13.8012 8.40219 13.8C8.6093 13.7988 8.7762 13.6287 8.77499 13.4201L8.75499 9.97549C8.75378 9.76689 8.58491 9.59879 8.37781 9.60001C8.1707 9.60122 8.00379 9.77131 8.00501 9.97991Z"
              fill="#222124" />
    </g>
    <defs>
        <filter id="filter0_d_0_29"
                x="0.221474"
                y="0.975161"
                width="17.4682"
                height="17.6954"
                filterUnits="userSpaceOnUse"
                color-interpolation-filters="sRGB">
            <feFlood flood-opacity="0"
                     result="BackgroundImageFix" />
            <feColorMatrix in="SourceAlpha"
                           type="matrix"
                           values="0 0 0 0 0 0 0 0 0 0 0 0 0 0 0 0 0 0 127 0"
                           result="hardAlpha" />
            <feOffset dy="1" />
            <feGaussianBlur stdDeviation="0.4" />
            <feColorMatrix type="matrix"
                           values="0 0 0 0 0 0 0 0 0 0 0 0 0 0 0 0 0 0 0.5 0" />
            <feBlend mode="normal"
                     in2="BackgroundImageFix"
                     result="effect1_dropShadow_0_29" />
            <feBlend mode="normal"
                     in="SourceGraphic"
                     in2="effect1_dropShadow_0_29"
                     result="shape" />
        </filter>
    </defs>
</svg>

<svg xmlns="http://www.w3.org/2000/svg" fill="currentColor" viewBox="0 0 18 19"><g filter="url(#a)"><path fill="#fff" d="M5.38 9.27c-.1-.37-.2-.85-.41-1.55s-.34-.86-.47-1.23-.3-.72-.5-1.18a12 12 0 0 1-.46-1.44 1.43 1.43 0 0 1 .28-1.17 1.41 1.41 0 0 1 1.36-.35c.379.166.7.44.92.79.295.472.537.975.72 1.5.282.72.486 1.467.61 2.23l.09.45V6.16c0-1-.06-1.82 0-2.94 0-.13.06-.59.08-.72a1.19 1.19 0 0 1 .67-1c.445-.2.955-.2 1.4 0 .399.178.665.564.69 1 0 .11.09 1 .09 1.11v3.64c.024-1.32.137-2.636.34-3.94a1.5 1.5 0 0 1 .79-.93 1.37 1.37 0 0 1 1.4.24c.288.316.458.723.48 1.15v3.55c.09-.28.19-.54.27-.74s.24-.61.36-.86q.184-.358.41-.69a1.38 1.38 0 0 1 .67-.56 1 1 0 0 1 1.3.59c.06.364.06.736 0 1.1a9.3 9.3 0 0 1-.35 1.65c-.13.45-.27 1.23-.34 1.6s-.23 1.38-.36 1.82a6 6 0 0 1-.79 1.47 7.2 7.2 0 0 0-1.19 1.81 4 4 0 0 0-.1 1c-.002.31.039.62.12.92a5.8 5.8 0 0 1-1.23 0c-.39-.06-.87-.84-1-1.08a.38.38 0 0 0-.68 0c-.23.38-.71 1.07-1.05 1.11-.67.08-2.05 0-3.14 0 0 0 .19-1-.23-1.36s-.83-.78-1.14-1.06l-.83-.92c-.28-.36-.63-1.09-1.24-2-.35-.5-1-1.09-1.28-1.58a1.75 1.75 0 0 1-.19-1.32 1.21 1.21 0 0 1 1.37-.86 2 2 0 0 1 1.24.54q.402.348.75.75c.16.19.2.28.38.51s.3.46.21.12"/><path stroke="#222124" stroke-linecap="round" stroke-linejoin="round" stroke-width=".75" d="M5.38 9.27c-.1-.37-.2-.85-.41-1.55s-.34-.86-.47-1.23-.3-.72-.5-1.18a12 12 0 0 1-.46-1.44 1.43 1.43 0 0 1 .28-1.17 1.41 1.41 0 0 1 1.36-.35c.379.166.7.44.92.79.295.472.537.975.72 1.5.282.72.486 1.467.61 2.23l.09.45V6.16c0-1-.06-1.82 0-2.94 0-.13.06-.59.08-.72a1.19 1.19 0 0 1 .67-1c.445-.2.955-.2 1.4 0 .399.178.665.564.69 1 0 .11.09 1 .09 1.11v3.64c.024-1.32.137-2.636.34-3.94a1.5 1.5 0 0 1 .79-.93 1.37 1.37 0 0 1 1.4.24c.288.316.458.723.48 1.15v3.55c.09-.28.19-.54.27-.74s.24-.61.36-.86q.184-.358.41-.69a1.38 1.38 0 0 1 .67-.56 1 1 0 0 1 1.3.59c.06.364.06.736 0 1.1a9.3 9.3 0 0 1-.35 1.65c-.13.45-.27 1.23-.34 1.6s-.23 1.38-.36 1.82a6 6 0 0 1-.79 1.47 7.2 7.2 0 0 0-1.19 1.81 4 4 0 0 0-.1 1c-.002.31.039.62.12.92a5.8 5.8 0 0 1-1.23 0c-.39-.06-.87-.84-1-1.08a.38.38 0 0 0-.68 0c-.23.38-.71 1.07-1.05 1.11-.67.08-2.05 0-3.14 0 0 0 .19-1-.23-1.36s-.83-.78-1.14-1.06l-.83-.92c-.28-.36-.63-1.09-1.24-2-.35-.5-1-1.09-1.28-1.58a1.75 1.75 0 0 1-.19-1.32 1.21 1.21 0 0 1 1.37-.86 2 2 0 0 1 1.24.54q.402.348.75.75c.16.19.2.28.38.51s.3.46.21.12"/><path fill="#222124" d="M12.75 13.43V9.98a.375.375 0 0 0-.75 0v3.45a.375.375 0 0 0 .75 0M10.76 13.43l-.01-3.453a.374.374 0 0 0-.75.002l.01 3.454a.374.374 0 0 0 .75-.002M8.005 9.98l.02 3.444c.001.21.17.377.377.376a.376.376 0 0 0 .373-.38l-.02-3.445a.376.376 0 0 0-.377-.375.376.376 0 0 0-.373.38"/></g><defs><filter id="a" width="17.468" height="17.695" x=".221" y=".975" color-interpolation-filters="sRGB" filterUnits="userSpaceOnUse"><feFlood flood-opacity="0" result="BackgroundImageFix"/><feColorMatrix in="SourceAlpha" result="hardAlpha" values="0 0 0 0 0 0 0 0 0 0 0 0 0 0 0 0 0 0 127 0"/><feOffset dy="1"/><feGaussianBlur stdDeviation=".4"/><feColorMatrix values="0 0 0 0 0 0 0 0 0 0 0 0 0 0 0 0 0 0 0.5 0"/><feBlend in2="BackgroundImageFix" result="effect1_dropShadow_0_29"/><feBlend in="SourceGraphic" in2="effect1_dropShadow_0_29" result="shape"/></filter></defs></svg>
